X: 1
T: President Garfield's
R: hornpipe
M: 4/4
L: 1/8
K: Cdor
BFDF BFDF | BABc dcde | fcAc fcAc | f=efg f_edc |
BFDF BFDF | BABc dcde | fgag fedc | B2d2B2 :||
geBG EGBg | fdBF DFBf | eAgf eAgf | dBgf dBba |
geBG EGBg | fdBF DFBf | =efag f_edc | B2d2B2 :||


Tune 419	Setting 30188

